!!!COM: Music21
!!!OTL: strathspey_Darling--The
!!!OMV: strathspey_Darling--The
**kern
*clefG2
*k[f#c#g#]
*A:
*M4/4
=1
8ff#
=
16cc#KL
8.f#J
8.cc#L
16bJk
16aKL
8.f#J
8.f#L
16ff#Jk
=
16cc#KL
8.f#J
8.cc#L
16eeJk
4ff#
8.ff#L
16aaJk
=
16cc#KL
8.f#J
8.cc#L
16bJk
8.aL
16f#Jk
16f#KL
8.ff#J
=
8.ee
16cc#LL
16aJ
8.cc#J
4b
8b
8ryy
!!linebreak:original
=||
*M4/4
8ff#
=
16cc#KL
8.f#J
8.cc#L
16bJk
16aKL
8.f#J
8.f#L
16ff#Jk
=
16cc#KL
8.f#J
8.cc#L
16eeJk
4ff#
8.ff#L
16aaJk
=
16cc#KL
8.f#J
8.cc#L
16bJk
8.aL
16bJk
16cc#KL
8.ff#J
=
8.ee
16cc#LL
16aJ
8.cc#J
4b
8b
8ryy
=||
8dd
2..ryy
!!linebreak:original
=
16cc#KL
8.ff#J
8.ff#L
16gg#Jk
8.aaL
16cc#Jk
8.cc#L
16bJk
=
16cc#KL
8.ff#J
8.ff#L
16gg#Jk
4aa
8.gg#L
16ff#Jk
=
16cc#KL
8.ff#J
8.ff#L
16gg#Jk
8.aaL
16ff#Jk
16cc#KL
8.aaJ
=
16eeKL
8.cc#J
16aKL
8.cc#J
4b
8.bL
16ddJk
!!linebreak:original
=
16cc#KL
8.ff#J
8.ff#L
16gg#Jk
8.aaL
16cc#Jk
8.cc#L
16bJk
=
16cc#KL
8.ff#J
8.ff#L
16gg#Jk
4aa
16gg#KL
8.bbJ
=
16ff#KL
8.aaJ
8.gg#L
16ff#Jk
8.eeL
16cc#Jk
16cc#KL
8.aaJ
=
16eeKL
8.cc#J
8.aaL
16cc#Jk
4b
8b
8ryy
=||
*-
